src/images/Icons/DarkBlue/Check.svg

<svg fill="none" height="24" viewBox="0 0 24 24" width="24" xmlns="http://www.w3.org/2000/svg"><path clip-rule="evenodd" d="m12 24c6.6274 0 12-5.3726 12-12 0-6.62742-5.3726-12-12-12-6.62742 0-12 5.37258-12 12 0 6.6274 5.37258 12 12 12zm-2.80575-7.1393c.2565.2565.5925.3841.92845.3841.336 0 .6721-.1276.9286-.3841l7.1189-7.11895c.5131-.513.5131-1.344 0-1.857-.513-.513-1.3424-.513-1.8554 0l-6.1921 6.19195-2.63245-2.6325c-.513-.513-1.3425-.5115-1.8555.0016-.513.5114-.513 1.3424 0 1.8554z" fill="#2b3652" fill-rule="evenodd"/></svg>

<svg width="24" height="24" viewBox="0 0 24 24" fill="none" xmlns="http://www.w3.org/2000/svg">
<path fill-rule="evenodd" clip-rule="evenodd" d="M12 24C18.6274 24 24 18.6274 24 12C24 5.37258 18.6274 0 12 0C5.37258 0 0 5.37258 0 12C0 18.6274 5.37258 24 12 24ZM9.19425 16.8607C9.45075 17.1172 9.78675 17.2448 10.1227 17.2448C10.4587 17.2448 10.7948 17.1172 11.0513 16.8607L18.1702 9.74175C18.6833 9.22875 18.6833 8.39775 18.1702 7.88475C17.6572 7.37175 16.8278 7.37175 16.3148 7.88475L10.1227 14.0767L7.49025 11.4442C6.97725 10.9312 6.14775 10.9327 5.63475 11.4458C5.12175 11.9572 5.12175 12.7882 5.63475 13.3012L9.19425 16.8607Z" fill="#2B3652"/>
</svg>
